components/ui-node-icon/src/blankTable/blankTable.small.svg

<svg xmlns="http://www.w3.org/2000/svg" width="16" height="16" fill="none" viewBox="0 0 16 16">
  <path fill="currentColor" d="M2 2h11v3H2z" opacity=".08"/>
  <path fill="currentColor" fill-rule="evenodd" d="M2 2h11v3H2V2Zm7 4H6v3h3V6Zm0 4H6v3h3v-3Zm1 3h3v-3h-3v3Zm0-4V6h3v3h-3ZM2 6v3h3V6H2Zm0 7v-3h3v3H2ZM1 2a1 1 0 0 1 1-1h11a1 1 0 0 1 1 1v11a1 1 0 0 1-1 1H2a1 1 0 0 1-1-1V2Z" clip-rule="evenodd"/>
</svg>

<svg width="16" height="16" viewBox="0 0 16 16" fill="none" xmlns="http://www.w3.org/2000/svg">
  <rect opacity="0.08" x="2" y="2" width="11" height="3" fill="currentColor"/>
  <path fill-rule="evenodd" clip-rule="evenodd" d="M2 2H13V5H10H9H6H5H2V2ZM9 6H6V9H9V6ZM9 10H6V13H9V10ZM10 13H13V10H10V13ZM10 9V6H13V9H10ZM2 6V9H5V6H2ZM2 13L2 10H5V13H2ZM1 2C1 1.44772 1.44772 1 2 1H13C13.5523 1 14 1.44772 14 2V13C14 13.5523 13.5523 14 13 14H2C1.44772 14 1 13.5523 1 13V2Z" fill="currentColor"/>
</svg>
